static/assets/images/icons/minimize.svg

<svg width="256" height="256" viewBox="0 0 256 256" fill="none" xmlns="http://www.w3.org/2000/svg">
<path d="M45.3322 211.214C40.8916 206.773 40.8916 199.574 45.3322 195.133L71.4099 169.055H53.3727C47.0917 169.055 42 163.964 42 157.683C42 151.402 47.0917 146.31 53.3727 146.31H98.8637C105.145 146.31 110.236 151.402 110.236 157.683V203.174C110.236 209.455 105.145 214.546 98.8636 214.546C92.5827 214.546 87.4909 209.455 87.4909 203.174V185.136L61.4132 211.214C56.9726 215.655 49.7729 215.655 45.3322 211.214Z" fill="black"/>
<path d="M146.31 98.8637C146.31 105.145 151.402 110.236 157.683 110.236H203.174C209.455 110.236 214.546 105.145 214.546 98.8636C214.546 92.5827 209.455 87.4909 203.174 87.4909H185.136L211.214 61.4132C215.655 56.9726 215.655 49.7729 211.214 45.3322C206.773 40.8916 199.574 40.8916 195.133 45.3322L169.055 71.4099V53.3727C169.055 47.0917 163.964 42 157.683 42C151.402 42 146.31 47.0917 146.31 53.3727V98.8637Z" fill="black"/>
<path d="M169.055 185.136L195.133 211.214C199.574 215.655 206.773 215.655 211.214 211.214C215.655 206.773 215.655 199.574 211.214 195.133L185.136 169.055H203.174C209.455 169.055 214.546 163.964 214.546 157.683C214.546 151.402 209.455 146.31 203.174 146.31H157.683C151.402 146.31 146.31 151.402 146.31 157.683V203.174C146.31 209.455 151.402 214.546 157.683 214.546C163.964 214.546 169.055 209.455 169.055 203.174V185.136Z" fill="black"/>
<path d="M42 98.8636C42 105.145 47.0917 110.236 53.3727 110.236H98.8637C105.145 110.236 110.236 105.145 110.236 98.8637V53.3727C110.236 47.0917 105.145 42 98.8636 42C92.5827 42 87.4909 47.0917 87.4909 53.3727V71.4099L61.4132 45.3322C56.9726 40.8916 49.7729 40.8916 45.3322 45.3322C40.8916 49.7729 40.8916 56.9726 45.3322 61.4132L71.4099 87.4909H53.3727C47.0917 87.4909 42 92.5827 42 98.8636Z" fill="black"/>
</svg>

<svg xmlns="http://www.w3.org/2000/svg" fill="none" viewBox="0 0 256 256"><path fill="#000" d="M45.332 211.214c-4.44-4.441-4.44-11.64 0-16.081l26.078-26.078H53.373c-6.281 0-11.373-5.091-11.373-11.372s5.092-11.373 11.373-11.373h45.49c6.282 0 11.373 5.092 11.373 11.373v45.491c0 6.281-5.091 11.372-11.372 11.372s-11.373-5.091-11.373-11.372v-18.038l-26.078 26.078c-4.44 4.441-11.64 4.441-16.08 0M146.31 98.864c0 6.281 5.092 11.372 11.373 11.372h45.491c6.281 0 11.372-5.091 11.372-11.372s-5.091-11.373-11.372-11.373h-18.038l26.078-26.078c4.441-4.44 4.441-11.64 0-16.08-4.441-4.441-11.64-4.441-16.081 0L169.055 71.41V53.373c0-6.281-5.091-11.373-11.372-11.373s-11.373 5.092-11.373 11.373zm22.745 86.272 26.078 26.078c4.441 4.441 11.64 4.441 16.081 0s4.441-11.64 0-16.081l-26.078-26.078h18.038c6.281 0 11.372-5.091 11.372-11.372s-5.091-11.373-11.372-11.373h-45.491c-6.281 0-11.373 5.092-11.373 11.373v45.491c0 6.281 5.092 11.372 11.373 11.372s11.372-5.091 11.372-11.372zM42 98.864c0 6.281 5.092 11.372 11.373 11.372h45.49c6.282 0 11.373-5.091 11.373-11.372V53.373c0-6.281-5.091-11.373-11.372-11.373S87.49 47.092 87.49 53.373V71.41L61.413 45.332c-4.44-4.44-11.64-4.44-16.08 0-4.441 4.44-4.441 11.64 0 16.081L71.41 87.491H53.373C47.092 87.49 42 92.583 42 98.864"/></svg>
